X:77
T:Oira
C:Traditional
O:Lithuania
Z:Bert Van Vreckem, 2001-08-11 <http://flanders.blackmill.net/music/>
Z:Transcribed from a recording by Bert Blancquaert and Hilde Raskin (2001-08-09, Dworp, Flanders),
Z:performed by Edvinas Vilkas and Lina Duduliene
M:2/4
L:1/8
K:G
"G"d2 d>c|BB B2|dd d>c|BB B2|"D"cA cA|cA cA|"D7"dc BA|"G"G2 G2||
"G"GG/A/ B/A/G|"D"cA cA|"D7"AA/B/ c/B/A|"G"dB dB|GG/A/ B/A/G|"D"cA cA|
